assets/svg/icon_button_walletnft.svg

<svg width="24" height="24" viewBox="0 0 24 24" fill="none" xmlns="http://www.w3.org/2000/svg">
<path d="M2.22569 4.72412L8.58965 11.0881M8.58965 11.0881L5.40767 11.4416M8.58965 11.0881L8.94321 7.9061" stroke="#0166FF" stroke-width="1.2" stroke-linecap="round" stroke-linejoin="round"/>
<path d="M20.833 9.79883H18.231C16.446 9.79883 15 11.1418 15 12.7988C15 14.4558 16.447 15.7988 18.23 15.7988H20.833C20.917 15.7988 20.958 15.7988 20.993 15.7968C21.533 15.7638 21.963 15.3648 21.998 14.8638C22 14.8318 22 14.7928 22 14.7158V10.8818C22 10.8048 22 10.7658 21.998 10.7338C21.962 10.2328 21.533 9.83383 20.993 9.80083C20.959 9.79883 20.917 9.79883 20.833 9.79883Z" stroke="#0166FF" stroke-width="1.2"/>
<path d="M19.826 5.97278L19.4016 6.39686L19.402 6.39731L19.826 5.97278ZM8.39805 4.20078C8.06668 4.20078 7.79805 4.46941 7.79805 4.80078C7.79805 5.13215 8.06668 5.40078 8.39805 5.40078V4.20078ZM3.17005 19.6288L3.59449 19.2047L3.59413 19.2043L3.17005 19.6288ZM19.826 19.6288L19.402 19.2043L19.4016 19.2047L19.826 19.6288ZM2.75763 9.03874C2.77859 8.70803 2.52749 8.42295 2.19679 8.40198C1.86608 8.38102 1.58099 8.63212 1.56003 8.96282L2.75763 9.03874ZM21.5625 9.7758C21.4842 7.89686 21.2359 6.53293 20.25 5.54825L19.402 6.39731C20.0342 7.02863 20.2859 7.9607 20.3636 9.82576L21.5625 9.7758ZM20.2505 5.5487C19.5068 4.80433 18.3031 4.4986 16.9523 4.35084C15.5733 4.19999 13.872 4.20078 11.998 4.20078V5.40078C13.8951 5.40078 15.5223 5.40157 16.8218 5.54372C18.1495 5.68896 18.9743 5.96923 19.4016 6.39686L20.2505 5.5487ZM1.39805 12.8008C1.39805 14.6693 1.39677 16.1312 1.5499 17.2698C1.70535 18.4256 2.02976 19.3376 2.74596 20.0532L3.59413 19.2043C3.13834 18.7489 2.87674 18.1325 2.73919 17.1098C2.59932 16.0698 2.59805 14.7032 2.59805 12.8008H1.39805ZM2.7456 20.0529C3.4612 20.7691 4.37328 21.0935 5.52907 21.2489C6.66761 21.4021 8.12951 21.4008 9.99805 21.4008V20.2008C8.09558 20.2008 6.72898 20.1995 5.68902 20.0596C4.66632 19.9221 4.04989 19.6605 3.59449 19.2047L2.7456 20.0529ZM9.99805 21.4008H12.998V20.2008H9.99805V21.4008ZM12.998 21.4008C14.8666 21.4008 16.3285 21.4021 17.467 21.2489C18.6228 21.0935 19.5349 20.7691 20.2505 20.0529L19.4016 19.2047C18.9462 19.6605 18.3298 19.9221 17.3071 20.0596C16.2671 20.1995 14.9005 20.2008 12.998 20.2008V21.4008ZM20.25 20.0533C21.2359 19.0687 21.4852 17.705 21.5625 15.8254L20.3636 15.7761C20.2869 17.6405 20.0342 18.5729 19.402 19.2043L20.25 20.0533ZM11.998 4.20078H8.39805V5.40078H11.998V4.20078ZM2.15883 9.00078C1.56003 8.96282 1.56003 8.96284 1.56003 8.96287C1.56003 8.96289 1.56002 8.96293 1.56002 8.96298C1.56001 8.96307 1.56001 8.96319 1.56 8.96336C1.55997 8.96369 1.55994 8.96418 1.5599 8.96482C1.55982 8.96609 1.55971 8.96797 1.55955 8.97044C1.55924 8.97538 1.55878 8.98268 1.55819 8.99223C1.55699 9.01133 1.55525 9.03942 1.55304 9.07557C1.54862 9.14787 1.5423 9.25242 1.53473 9.38177C1.51959 9.64041 1.4994 9.99855 1.47921 10.3965C1.43904 11.1881 1.39805 12.152 1.39805 12.8008H2.59805C2.59805 12.1859 2.63745 11.2498 2.67767 10.4573C2.69767 10.0632 2.71767 9.7083 2.73268 9.45189C2.74018 9.32371 2.74643 9.22024 2.7508 9.14889C2.75298 9.11322 2.7547 9.08558 2.75586 9.06692C2.75644 9.05758 2.75689 9.05049 2.75718 9.04575C2.75733 9.04339 2.75745 9.04161 2.75752 9.04043C2.75756 9.03985 2.75758 9.03941 2.7576 9.03913C2.75761 9.03899 2.75762 9.03888 2.75762 9.03882C2.75762 9.03879 2.75762 9.03877 2.75763 9.03875C2.75763 9.03874 2.75763 9.03874 2.15883 9.00078Z" fill="#0166FF"/>
<path d="M17.9902 12.7988H18.0009" stroke="#0166FF" stroke-width="1.2" stroke-linecap="round" stroke-linejoin="round"/>
</svg>

<svg xmlns="http://www.w3.org/2000/svg" width="24" height="24" fill="none"><path stroke="#0166FF" stroke-linecap="round" stroke-linejoin="round" stroke-width="1.2" d="m2.226 4.724 6.364 6.364m0 0-3.182.354m3.182-.354.353-3.182"/><path stroke="#0166FF" stroke-width="1.2" d="M20.833 9.799h-2.602c-1.785 0-3.231 1.343-3.231 3s1.447 3 3.23 3h2.603c.084 0 .125 0 .16-.002.54-.033.97-.432 1.005-.933.002-.032.002-.071.002-.148v-3.834c0-.077 0-.116-.002-.148-.036-.501-.465-.9-1.005-.933-.034-.002-.076-.002-.16-.002Z"/><path fill="#0166FF" d="m19.826 5.973-.424.424zM8.398 4.2a.6.6 0 0 0 0 1.2zM3.17 19.629l.424-.424zm16.656 0-.424-.425zM2.758 9.039a.6.6 0 0 0-1.198-.076zm18.805.737c-.079-1.88-.327-3.243-1.313-4.228l-.848.85c.632.63.884 1.563.962 3.428zM20.25 5.549c-.744-.745-1.948-1.05-3.299-1.198-1.379-.151-3.08-.15-4.954-.15v1.2c1.897 0 3.524 0 4.824.143 1.328.145 2.152.425 2.58.853zM1.397 12.8c0 1.868-.001 3.33.152 4.469.155 1.156.48 2.068 1.196 2.783l.848-.849c-.456-.455-.717-1.072-.855-2.094-.14-1.04-.14-2.407-.14-4.31zm1.348 7.252c.715.716 1.627 1.04 2.783 1.196 1.139.153 2.6.152 4.469.152v-1.2c-1.902 0-3.269-.002-4.309-.141-1.023-.138-1.64-.4-2.095-.855zM9.998 21.4h3v-1.2h-3zm3 0c1.869 0 3.33.001 4.469-.152 1.156-.155 2.068-.48 2.784-1.196l-.85-.848c-.455.456-1.071.717-2.094.855-1.04.14-2.406.14-4.309.14zm7.252-1.348c.986-.984 1.235-2.348 1.313-4.228l-1.2-.049c-.076 1.864-.329 2.797-.961 3.428zM11.998 4.201h-3.6v1.2h3.6zM2.158 9l-.598-.038v.007l-.002.022-.023.39c-.015.258-.036.617-.056 1.015a55 55 0 0 0-.081 2.404h1.2c0-.615.04-1.551.08-2.344A132 132 0 0 1 2.75 9.15l.005-.082.001-.021v-.007z"/><path stroke="#0166FF" stroke-linecap="round" stroke-linejoin="round" stroke-width="1.2" d="M17.99 12.799H18"/></svg>
